assets/2023/icons/folderTest.svg

<!-- Copyright 2000-2023 JetBrains s.r.o. and contributors. Use of this source code is governed by the Apache 2.0 license. -->
<svg width="16" height="16" viewBox="0 0 16 16" fill="none" xmlns="http://www.w3.org/2000/svg">
<path fill-rule="evenodd" clip-rule="evenodd" d="M15.3798 12.7117C15.5435 12.8691 15.5436 13.131 15.3799 13.2884L12.6774 15.8876C12.4232 16.132 12 15.9519 12 15.5993L12 10.4038C12 10.0513 12.423 9.87118 12.6772 10.1154L15.3798 12.7117Z" fill="#55A76A"/>
<path fill-rule="evenodd" clip-rule="evenodd" d="M7.62255 13.2883C7.45909 13.1309 7.45916 12.8692 7.62271 12.7119L10.3216 10.1163C10.5757 9.87185 10.9989 10.0519 10.9989 10.4045V15.5986C10.9989 15.9514 10.5755 16.1314 10.3214 15.8868L7.62255 13.2883Z" fill="#E55765"/>
<path d="M1 3.86667C1 2.83574 1.7835 2 2.75 2H6.03823C6.29871 2 6.5489 2.10163 6.73559 2.28327L8.5 4L13 4C14.1046 4 15 4.89543 15 6V10.9602L13.37 9.39427C12.8081 8.85449 12.0104 8.90704 11.499 9.33004C10.9874 8.90755 10.1899 8.85552 9.6284 9.39554L6.92953 11.9912C6.36003 12.5389 6.35681 13.4482 6.92007 14H2.75C1.7835 14 1 13.1643 1 12.1333V3.86667Z" fill="#EBECF0"/>
<path d="M6.03823 3L8.09379 5H13C13.5523 5 14 5.44772 14 6V9.9995L15 10.9602V6C15 4.89543 14.1046 4 13 4L8.5 4L6.73559 2.28327C6.5489 2.10163 6.29871 2 6.03823 2H2.75C1.7835 2 1 2.83574 1 3.86667V12.1333C1 13.1643 1.7835 14 2.75 14H6.92007C6.63997 13.7256 6.49996 13.3628 6.5 13H2.75C2.3956 13 2 12.6738 2 12.1333V3.86667C2 3.32624 2.3956 3 2.75 3H6.03823Z" fill="#6C707E"/>
</svg>

<svg xmlns="http://www.w3.org/2000/svg" width="16" height="16" fill="none" viewBox="0 0 16 16"><path fill="#55A76A" fill-rule="evenodd" d="M15.38 12.712a.4.4 0 0 1 0 .576l-2.703 2.6a.4.4 0 0 1-.677-.289v-5.195a.4.4 0 0 1 .677-.289z" clip-rule="evenodd"/><path fill="#E55765" fill-rule="evenodd" d="M7.623 13.288a.4.4 0 0 1 0-.576l2.699-2.596a.4.4 0 0 1 .677.289v5.194a.4.4 0 0 1-.678.288z" clip-rule="evenodd"/><path fill="#EBECF0" d="M1 3.867C1 2.836 1.784 2 2.75 2h3.288a1 1 0 0 1 .698.283L8.5 4H13a2 2 0 0 1 2 2v4.96l-1.63-1.566c-.562-.54-1.36-.487-1.871-.064-.512-.422-1.31-.474-1.87.066l-2.7 2.595A1.4 1.4 0 0 0 6.92 14H2.75C1.784 14 1 13.164 1 12.133z"/><path fill="#6C707E" d="m6.038 3 2.056 2H13a1 1 0 0 1 1 1v4l1 .96V6a2 2 0 0 0-2-2H8.5L6.736 2.283A1 1 0 0 0 6.038 2H2.75C1.784 2 1 2.836 1 3.867v8.266C1 13.164 1.784 14 2.75 14h4.17a1.4 1.4 0 0 1-.42-1H2.75c-.354 0-.75-.326-.75-.867V3.867c0-.54.396-.867.75-.867z"/></svg>
